src/containers/site/SiteContactScreen/asset/twitter.svg

<svg width="31" height="32" viewBox="0 0 31 32" fill="none" xmlns="http://www.w3.org/2000/svg">
<path d="M30 16C30 24.3144 23.4784 31 15.5 31C7.52156 31 1 24.3144 1 16C1 7.68556 7.52156 1 15.5 1C23.4784 1 30 7.68556 30 16Z" stroke="url(#paint0_linear)" stroke-width="2"/>
<path fill-rule="evenodd" clip-rule="evenodd" d="M22.1152 12.0553C22.7932 11.6496 23.3135 11.0065 23.5577 10.2404C22.9228 10.6169 22.2213 10.8891 21.4728 11.0365C20.8755 10.3981 20.0218 10 19.0771 10C17.2645 10 15.7957 11.4694 15.7957 13.2815C15.7957 13.5387 15.823 13.7894 15.8793 14.0288C13.1521 13.8917 10.7338 12.5867 9.11381 10.6C8.83113 11.0863 8.6696 11.6496 8.6696 12.2505C8.6696 13.3885 9.24905 14.3931 10.13 14.9827C9.59183 14.9658 9.08564 14.8166 8.64237 14.5724V14.6128C8.64237 16.2033 9.77308 17.53 11.2766 17.8304C11.0005 17.9074 10.7113 17.9459 10.4108 17.9459C10.1994 17.9459 9.99284 17.9262 9.79374 17.8877C10.2107 19.1909 11.4231 20.1411 12.86 20.1664C11.7359 21.0471 10.3206 21.571 8.78324 21.571C8.5184 21.571 8.25638 21.5569 8 21.5259C9.45284 22.4564 11.178 23 13.0319 23C19.0705 23 22.3706 17.9994 22.3706 13.6626C22.3706 13.5199 22.3687 13.3782 22.3622 13.2383C23.0036 12.7754 23.5614 12.197 24 11.5389C23.4112 11.7999 22.7782 11.9764 22.1152 12.0553Z" fill="url(#paint1_linear)"/>
<defs>
<linearGradient id="paint0_linear" x1="-17.0878" y1="14.0495" x2="13.4027" y2="44.2917" gradientUnits="userSpaceOnUse">
<stop stop-color="#FFCC5C"/>
<stop offset="1" stop-color="#FF9E65"/>
</linearGradient>
<linearGradient id="paint1_linear" x1="-0.819534" y1="15.7076" x2="11.2438" y2="30.9089" gradientUnits="userSpaceOnUse">
<stop stop-color="#FFCC5C"/>
<stop offset="1" stop-color="#FF9E65"/>
</linearGradient>
</defs>
</svg>

<svg width="31" height="32" fill="none" xmlns="http://www.w3.org/2000/svg"><path d="M30 16c0 8.314-6.522 15-14.5 15S1 24.314 1 16 7.522 1 15.5 1 30 7.686 30 16z" stroke="url(#paint0_linear)" stroke-width="2"/><path fill-rule="evenodd" clip-rule="evenodd" d="M22.115 12.055a3.283 3.283 0 001.443-1.815 6.57 6.57 0 01-2.085.796 3.281 3.281 0 00-5.677 2.245c0 .258.027.508.083.748A9.32 9.32 0 019.114 10.6a3.283 3.283 0 001.016 4.383 3.294 3.294 0 01-1.488-.41v.04c0 1.59 1.131 2.917 2.635 3.217a3.211 3.211 0 01-.866.116 3.25 3.25 0 01-.617-.058 3.283 3.283 0 003.066 2.278 6.587 6.587 0 01-4.077 1.405c-.265 0-.527-.014-.783-.045A9.298 9.298 0 0013.032 23c6.038 0 9.339-5 9.339-9.337a9.16 9.16 0 00-.009-.425 6.65 6.65 0 001.638-1.7 6.557 6.557 0 01-1.885.517z" fill="url(#paint1_linear)"/><defs><linearGradient id="paint0_linear" x1="-17.088" y1="14.05" x2="13.403" y2="44.292" gradientUnits="userSpaceOnUse"><stop stop-color="#FFCC5C"/><stop offset="1" stop-color="#FF9E65"/></linearGradient><linearGradient id="paint1_linear" x1="-.82" y1="15.708" x2="11.244" y2="30.909" gradientUnits="userSpaceOnUse"><stop stop-color="#FFCC5C"/><stop offset="1" stop-color="#FF9E65"/></linearGradient></defs></svg>
